X:2456
T:Cameronian Reel
T:Carey's Dream
T:Aisling Uí Chiardha
S:as played in Madison, Wisconsin
C:Traditional
N:Transcribed by K. F. Fischer
Z:Transcribed by Karen Fox Fischer kfische3@students.wisc.edu January, 1999. id:ng-reels-31
R:reel
M:C|
K:D
E:10
B|A2 FA DAFA|GFEF GBdB|A2 FA DAFA|GBAG FDDB|A2 FA DAFA|G~E3 GBdB|\
E:12
A2 FA DAFA|GBAG FDD::B|Addc d2ed|cdef gfed|(3cBAeA fAeA|(3cBAef gfeg|faeg faeg|\
fddc defg|afge fdec|dBAG FDD:|**


